assets/Milky way/Flat/milky_way_flat.svg

<svg width="32" height="32" viewBox="0 0 32 32" fill="none" xmlns="http://www.w3.org/2000/svg">
<path d="M26.33 30H18.3789L16.5352 29.2148L14.3008 30H5.67C4.63319 30 3.69812 29.5722 3.03132 28.8831L3.38342 25.8389L2 18.3313V5.67C2 3.64 3.64 2 5.67 2H16.5156L23.5147 4.15168L29.7588 4.35657C29.9147 4.7642 30 5.20695 30 5.67V6.17969L28.497 9.60405L30 11.0547V26.33C30 28.36 28.36 30 26.33 30Z" fill="#321B41"/>
<path d="M26.33 2H16.5C13.5 4.93 11.46 7.81 9.67 10.34C7.28 13.73 5.44 16.33 2 18.32V26.33C2 27.32 2.4 28.22 3.04 28.89C11.09 25.64 14.52 20.81 17.84 16.11C20.72 12.03 23.45 8.17 29.75 4.36C29.22 2.98 27.9 2 26.33 2ZM14.29 30H18.39C20.59 20.68 24.88 14.99 30 11.06V6.15997C23.16 10.64 17.01 17.53 14.29 30ZM7.98999 5.5C7.98999 5.77614 7.76613 6 7.48999 6C7.21385 6 6.98999 5.77614 6.98999 5.5C6.98999 5.22386 7.21385 5 7.48999 5C7.76613 5 7.98999 5.22386 7.98999 5.5ZM25.99 19.5C25.99 19.7761 25.7661 20 25.49 20C25.2138 20 24.99 19.7761 24.99 19.5C24.99 19.2239 25.2138 19 25.49 19C25.7661 19 25.99 19.2239 25.99 19.5ZM22.49 26C22.7661 26 22.99 25.7761 22.99 25.5C22.99 25.2239 22.7661 25 22.49 25C22.2138 25 21.99 25.2239 21.99 25.5C21.99 25.7761 22.2138 26 22.49 26ZM27.99 24.5C27.99 24.7761 27.7661 25 27.49 25C27.2138 25 26.99 24.7761 26.99 24.5C26.99 24.2239 27.2138 24 27.49 24C27.7661 24 27.99 24.2239 27.99 24.5ZM4.48999 11C4.76613 11 4.98999 10.7761 4.98999 10.5C4.98999 10.2239 4.76613 10 4.48999 10C4.21385 10 3.98999 10.2239 3.98999 10.5C3.98999 10.7761 4.21385 11 4.48999 11Z" fill="#0074BA"/>
<path d="M15.8601 8.78999L15.4901 8.61C15.4401 8.59 15.4001 8.55 15.3801 8.49999L15.2001 8.13C15.1101 7.95 14.8601 7.95 14.7801 8.13L14.6201 8.46999C14.6001 8.51999 14.5601 8.55999 14.5101 8.57999L14.1201 8.76999C13.9501 8.86 13.9501 9.11 14.1201 9.19L14.4801 9.36C14.5301 9.38 14.5701 9.41999 14.5901 9.46999L14.7801 9.86C14.8701 10.03 15.1101 10.03 15.2001 9.86L15.3801 9.48999C15.4001 9.43999 15.4401 9.4 15.4901 9.38L15.8601 9.19999C16.0401 9.11999 16.0401 8.86999 15.8601 8.78999ZM10.79 19.18L10.23 18.91C10.16 18.88 10.1 18.82 10.07 18.75L9.80999 18.2C9.67999 17.94 9.29999 17.94 9.17999 18.2L8.94 18.72C8.91 18.79 8.85 18.85 8.78 18.88L8.19 19.17C7.93 19.3 7.93 19.67 8.19 19.8L8.71999 20.05C8.78999 20.08 8.85 20.14 8.88 20.21L9.17 20.79C9.3 21.05 9.67 21.05 9.8 20.79L10.07 20.23C10.1 20.16 10.16 20.1 10.23 20.07L10.79 19.8C11.06 19.68 11.06 19.3 10.79 19.18ZM21.4901 17.61L21.8601 17.79C22.0401 17.87 22.0401 18.12 21.8601 18.2L21.4901 18.38C21.4401 18.4 21.4001 18.44 21.3801 18.49L21.2001 18.86C21.1101 19.03 20.8701 19.03 20.7801 18.86L20.5901 18.47C20.5701 18.42 20.5301 18.38 20.4801 18.36L20.1201 18.19C19.9501 18.11 19.9501 17.86 20.1201 17.77L20.5101 17.58C20.5601 17.56 20.6001 17.52 20.6201 17.47L20.7801 17.13C20.8601 16.95 21.1101 16.95 21.2001 17.13L21.3801 17.5C21.4001 17.55 21.4401 17.59 21.4901 17.61Z" fill="#FCD53F"/>
<path d="M22.4901 6.61L22.8601 6.78999C23.0401 6.86999 23.0401 7.11999 22.8601 7.19999L22.4901 7.38C22.4401 7.4 22.4001 7.43999 22.3801 7.48999L22.2001 7.86C22.1101 8.03 21.8701 8.03 21.7801 7.86L21.5901 7.46999C21.5701 7.41999 21.5301 7.38 21.4801 7.36L21.1201 7.19C20.9501 7.11 20.9501 6.86 21.1201 6.76999L21.5101 6.57999C21.5601 6.55999 21.6001 6.51999 21.6201 6.46999L21.7801 6.13C21.8601 5.95 22.1101 5.95 22.2001 6.13L22.3801 6.49999C22.4001 6.55 22.4401 6.59 22.4901 6.61ZM14.4901 16.61L14.8601 16.79C15.0401 16.87 15.0401 17.12 14.8601 17.2L14.4901 17.38C14.4401 17.4 14.4001 17.44 14.3801 17.49L14.2001 17.86C14.1101 18.03 13.8701 18.03 13.7801 17.86L13.5901 17.47C13.5701 17.42 13.5301 17.38 13.4801 17.36L13.1201 17.19C12.9501 17.11 12.9501 16.86 13.1201 16.77L13.5101 16.58C13.5601 16.56 13.6001 16.52 13.6201 16.47L13.7801 16.13C13.8601 15.95 14.1101 15.95 14.2001 16.13L14.3801 16.5C14.4001 16.55 14.4401 16.59 14.4901 16.61Z" fill="#26EAFC"/>
<path d="M18.49 12C18.7661 12 18.99 11.7761 18.99 11.5C18.99 11.2239 18.7661 11 18.49 11C18.2138 11 17.99 11.2239 17.99 11.5C17.99 11.7761 18.2138 12 18.49 12ZM10.49 14C10.7661 14 10.99 13.7761 10.99 13.5C10.99 13.2239 10.7661 13 10.49 13C10.2138 13 9.98999 13.2239 9.98999 13.5C9.98999 13.7761 10.2138 14 10.49 14ZM18.99 23.5C18.99 23.7761 18.7661 24 18.49 24C18.2138 24 17.99 23.7761 17.99 23.5C17.99 23.2239 18.2138 23 18.49 23C18.7661 23 18.99 23.2239 18.99 23.5Z" fill="#26EAFC"/>
<path fill-rule="evenodd" clip-rule="evenodd" d="M21.99 3.5C21.99 3.77614 21.7661 4 21.49 4C21.2138 4 20.99 3.77614 20.99 3.5C20.99 3.22386 21.2138 3 21.49 3C21.7661 3 21.99 3.22386 21.99 3.5ZM26.49 12C26.7661 12 26.99 11.7761 26.99 11.5C26.99 11.2239 26.7661 11 26.49 11C26.2138 11 25.99 11.2239 25.99 11.5C25.99 11.7761 26.2138 12 26.49 12ZM5.48999 24C5.21385 24 4.98999 23.7761 4.98999 23.5C4.98999 23.2239 5.21385 23 5.48999 23C5.76613 23 5.98999 23.2239 5.98999 23.5C5.98999 23.7761 5.76613 24 5.48999 24Z" fill="#F4F4F4"/>
</svg>

<svg xmlns="http://www.w3.org/2000/svg" width="32" height="32" fill="none"><path fill="#321B41" d="M26.33 30h-7.951l-1.844-.785-2.234.785H5.67a3.659 3.659 0 0 1-2.639-1.117l.352-3.044L2 18.33V5.67C2 3.64 3.64 2 5.67 2h10.846l6.999 2.152 6.244.205c.156.407.241.85.241 1.313v.51l-1.503 3.424L30 11.054V26.33c0 2.03-1.64 3.67-3.67 3.67Z"/><path fill="#0074BA" d="M26.33 2H16.5c-3 2.93-5.04 5.81-6.83 8.34-2.39 3.39-4.23 5.99-7.67 7.98v8.01c0 .99.4 1.89 1.04 2.56 8.05-3.25 11.48-8.08 14.8-12.78 2.88-4.08 5.61-7.94 11.91-11.75A3.657 3.657 0 0 0 26.33 2ZM14.29 30h4.1c2.2-9.32 6.49-15.01 11.61-18.94v-4.9C23.16 10.64 17.01 17.53 14.29 30ZM7.99 5.5a.5.5 0 1 1-1 0 .5.5 0 0 1 1 0Zm18 14a.5.5 0 1 1-1 0 .5.5 0 0 1 1 0Zm-3.5 6.5a.5.5 0 1 0 0-1 .5.5 0 0 0 0 1Zm5.5-1.5a.5.5 0 1 1-1 0 .5.5 0 0 1 1 0ZM4.49 11a.5.5 0 1 0 0-1 .5.5 0 0 0 0 1Z"/><path fill="#FCD53F" d="m15.86 8.79-.37-.18a.198.198 0 0 1-.11-.11l-.18-.37c-.09-.18-.34-.18-.42 0l-.16.34c-.02.05-.06.09-.11.11l-.39.19c-.17.09-.17.34 0 .42l.36.17c.05.02.09.06.11.11l.19.39c.09.17.33.17.42 0l.18-.37c.02-.05.06-.09.11-.11l.37-.18c.18-.08.18-.33 0-.41Zm-5.07 10.39-.56-.27a.312.312 0 0 1-.16-.16l-.26-.55c-.13-.26-.51-.26-.63 0l-.24.52c-.03.07-.09.13-.16.16l-.59.29c-.26.13-.26.5 0 .63l.53.25c.07.03.13.09.16.16l.29.58c.13.26.5.26.63 0l.27-.56c.03-.07.09-.13.16-.16l.56-.27c.27-.12.27-.5 0-.62Zm10.7-1.57.37.18c.18.08.18.33 0 .41l-.37.18c-.05.02-.09.06-.11.11l-.18.37c-.09.17-.33.17-.42 0l-.19-.39a.198.198 0 0 0-.11-.11l-.36-.17c-.17-.08-.17-.33 0-.42l.39-.19c.05-.02.09-.06.11-.11l.16-.34c.08-.18.33-.18.42 0l.18.37c.02.05.06.09.11.11Z"/><path fill="#26EAFC" d="m22.49 6.61.37.18c.18.08.18.33 0 .41l-.37.18c-.05.02-.09.06-.11.11l-.18.37c-.09.17-.33.17-.42 0l-.19-.39a.198.198 0 0 0-.11-.11l-.36-.17c-.17-.08-.17-.33 0-.42l.39-.19c.05-.02.09-.06.11-.11l.16-.34c.08-.18.33-.18.42 0l.18.37c.02.05.06.09.11.11Zm-8 10 .37.18c.18.08.18.33 0 .41l-.37.18c-.05.02-.09.06-.11.11l-.18.37c-.09.17-.33.17-.42 0l-.19-.39a.198.198 0 0 0-.11-.11l-.36-.17c-.17-.08-.17-.33 0-.42l.39-.19c.05-.02.09-.06.11-.11l.16-.34c.08-.18.33-.18.42 0l.18.37c.02.05.06.09.11.11ZM18.49 12a.5.5 0 1 0 0-1 .5.5 0 0 0 0 1Zm-8 2a.5.5 0 1 0 0-1 .5.5 0 0 0 0 1Zm8.5 9.5a.5.5 0 1 1-1 0 .5.5 0 0 1 1 0Z"/><path fill="#F4F4F4" fill-rule="evenodd" d="M21.99 3.5a.5.5 0 1 1-1 0 .5.5 0 0 1 1 0Zm4.5 8.5a.5.5 0 1 0 0-1 .5.5 0 0 0 0 1Zm-21 12a.5.5 0 1 1 0-1 .5.5 0 0 1 0 1Z" clip-rule="evenodd"/></svg>
